packages/web-icons/svgs/osx.svg

<svg viewBox="0 0 49 49" xmlns="http://www.w3.org/2000/svg" class="ridi_icon"><path d="M24.1 48.9c-13.2 0-24-10.7-24-24s10.8-24 24-24 24 10.7 24 24-10.8 24-24 24zm12.6-39h-4.8L24 21.2 16 9.9h-4.8l10.3 14.7-10.3 14.7H16L23.9 28l7.9 11.3h4.8L26.3 24.6 36.7 9.9z"/></svg>

<?xml version="1.0" encoding="UTF-8"?>
<svg width="49px" height="49px" viewBox="0 0 49 49" version="1.1" xmlns="http://www.w3.org/2000/svg">
  <!-- Generator: Sketch 41.2 (35397) - http://www.bohemiancoding.com/sketch -->
  <title>osx</title>
  <desc>Created with Sketch.</desc>
  <defs></defs>
  <g id="Page-1" stroke="none" stroke-width="1" fill="none" fill-rule="evenodd">
    <g id="osx" fill="#000000">
      <g id="레이어_1">
        <path d="M24.1,48.9 C10.9,48.9 0.1,38.2 0.1,24.9 C0.1,11.6 10.9,0.9 24.1,0.9 C37.3,0.9 48.1,11.6 48.1,24.9 C48.1,38.2 37.3,48.9 24.1,48.9 Z M36.7,9.9 L31.9,9.9 L24,21.2 L16,9.9 L11.2,9.9 L21.5,24.6 L11.2,39.3 L16,39.3 L23.9,28 L31.8,39.3 L36.6,39.3 L26.3,24.6 L36.7,9.9 Z" id="Shape"></path>
      </g>
    </g>
  </g>
</svg>
